X:1
T:Title
%%score { ( 1 3 ) | ( 2 4 ) }
L:1/8
M:6/8
K:F
V:1 treble nm="Grand Piano"
V:3 treble 
V:2 bass 
V:4 bass 
V:1
 z3 z2[Q:1/4=84] C | CFG AGF | c2 d c2 C | CFG AGF |[M:5/8] [EG]-[EG]- [EG]3 |[M:1/8] C | %6
[M:3/4] CF GA GF | c2 d c2 [DFB] | [CFA][Fc] [FA] [EG]2 G |[M:5/8] F-F- F3 |[M:1/8] A/B/ | %11
[M:3/4] c>c cc A>[CAc] | [Fd]>[Fd] [DFd][FBd] [FAc]>[CAc] | %13
 [CAc]>[CGB] [CFA][CAc]- [CAc]/[CGB]/[CFA] |[M:5/8] [CEG]-[CEG]- [CEG]3 |[M:1/8] A/B/ | %16
[M:3/4] c>c cc A>[Ac] | d>d d[Bd] [Ac]>[Ac] | [Ac]>[GB] [FA][B,EG] [CFA]>[B,EG] | %19
[M:5/8] F2- [DF-] [CF]2 |] %20
V:2
 z3 z2 [F,A,] | [F,A,][F,A,C][F,B,C] [F,CF][F,B,C][F,A,C] | [F,A,F]2 [F,B,F] [F,A,F]2 [F,A,] | %3
 [F,A,][F,A,C][F,B,C] [F,CF][F,B,C][F,A,C] |[M:5/8] [C,C]-[C,C]- [C,C]3 |[M:1/8] [F,A,] | %6
[M:3/4] [F,A,][F,A,C] [F,B,C][F,CF] [F,B,C][F,A,C] | [F,A,F]2 [F,B,F] [F,A,F]2 B,, | %8
 C,[C,A,] [C,C] [C,B,]2 [C,B,C] |[M:5/8] [F,A,C]-[F,A,C]- [F,A,C]3 |[M:1/8] [F,CF]/[F,B,F]/ | %11
[M:3/4] [F,A,F]>[F,A,F] [F,A,F][F,A,F] [F,CF]>F, | B,>B, B,F, F,>F, | F,>F, F,F,- F,/F,/F, | %14
[M:5/8] C,-C,- C,3 |[M:1/8] [F,CF]/[F,B,F]/ |[M:3/4] [F,A,F]>[F,A,F] [F,A,F][F,A,F] [F,CF]>[F,C] | %17
 [B,F]>[B,F] [B,DF][F,F] [F,F]>[K:bass][F,C] | [C,C]>[C,C] [C,C]C, C,>C, |[M:5/8] z2 B, A,2 |] %20
V:3
 x6 | x6 | x6 | x6 |[M:5/8] x5 |[M:1/8] x |[M:3/4] x6 | x6 | x6 |[M:5/8] x5 |[M:1/8] x | %11
[M:3/4] x6 | x6 | x6 |[M:5/8] x5 |[M:1/8] x |[M:3/4] x6 | x6 | x6 |[M:5/8] A,2 z z2 |] %20
V:4
 x6 | x6 | x6 | x6 |[M:5/8] x5 |[M:1/8] x |[M:3/4] x6 | x6 | x6 |[M:5/8] x5 |[M:1/8] x | %11
[M:3/4] x6 | x6 | x6 |[M:5/8] x5 |[M:1/8] x |[M:3/4] x6 | x11/2[K:bass] x/ | x6 | %19
[M:5/8] F,-F,- F,3 |] %20

